X:1
T:Title
%%score { ( 1 3 ) | ( 2 4 ) }
L:1/8
M:3/4
K:G
V:1 treble nm="Grand Piano"
V:3 treble 
V:2 bass 
V:4 bass 
V:1
 z2 z[Q:1/4=100] [B,D] [B,D][B,D] | [B,G]3 [DB] [CA][B,G] | F3 D DD | A3 c BA |[M:3/8] [B,G]3 | %5
 [B,D]DD |[M:3/4] G3 B Bd | [Ec]3 [Ge] [Ge][Ge] | [Gd]3 B BA |[M:9/16] [G,B,G]4- [G,B,G]/ | %10
[M:3/8] BA[G,B,G] |[M:3/4] [B,D]4 z2 | [CA]4[K:bass][K:treble] z2 | F4 z2 | [B,B]4 z2 | d4 z2 | %16
 [Ge]4 z2[Q:1/4=99][Q:1/4=97][Q:1/4=96][Q:1/4=94][Q:1/4=93] | %17
 [DB][Gd] [Ge][Gd] [Fc][FA][Q:1/4=91][Q:1/4=90][Q:1/4=88][Q:1/4=87][Q:1/4=85][Q:1/4=84][Q:1/4=82][Q:1/4=81][Q:1/4=79][Q:1/4=78][Q:1/4=76] | %18
[M:7/16] G/-G/-G/-G-<G |] %19
V:2
 z2 z [G,,G,] [G,,G,][G,,G,] | [G,,G,]3 [G,,G,] [G,,G,][G,,G,] | [D,A,C]3 [D,F,C] [D,F,C][D,F,C] | %3
 [D,F,C]3 [D,F,E] [D,G,D][D,F,C] |[M:3/8] [G,,G,]3 | [G,,G,][B,,G,B,][D,G,B,] | %6
[M:3/4][K:treble] [G,B,D]3 [G,D=F] [G,DF][G,B,F] | [C,C]3 [^C,_B,] [C,B,][C,B,] | %8
 [D,B,]3 [D,G,D] [D,G,D][D,F,C] |[M:9/16] G,,4- G,,/ |[M:3/8] DCG,, |[M:3/4] G,,G,, G,,B, B,G,, | %12
 [D,F,]D, D,E D[D,F,C] | C4 z2 | [G,,G,]G,, G,,[K:treble]D C[G,B,] | G4[K:bass] z2 | %16
 [E,B,]E, E,[K:treble]G F[K:bass][D,G,] | [D,G,][D,B,] [D,C][D,B,] [D,A,][D,C] | %18
[M:7/16] [G,B,][G,C][G,B,]3/2 |] %19
V:3
 x6 | x6 | x6 | x6 |[M:3/8] x3 | x3 |[M:3/4] x6 | x6 | x6 |[M:9/16] x9/2 |[M:3/8] x3 | %11
[M:3/4] G,G, G,G F[G,B,G] | z[K:bass] F, F,[K:treble]c BA | z A, A,E ED | z G, G,B AG | %15
 z B, B,d [A^d][Ad] | z B, B,e d[Ec] | x6 |[M:7/16] z ED3/2 |] %19
V:4
 x6 | x6 | x6 | x6 |[M:3/8] x3 | x3 |[M:3/4][K:treble] x6 | x6 | x6 |[M:9/16] x9/2 |[M:3/8] x3 | %11
[M:3/4] x6 | x6 | [D,A,]D, D,[D,A,C] [D,G,C][D,F,C] | x3[K:treble] x3 | %15
 [G,B,]G, G,[G,B,G][K:bass] [F,B,][F,B,] | x3[K:treble] x2[K:bass] x | x6 |[M:7/16] x7/2 |] %19

